komodo/Komodo-Biru/apps/scalable/ccsm.svg

<?xml version="1.0" encoding="UTF-8" standalone="no"?>
<!-- Created with Inkscape (http://www.inkscape.org/) -->

<svg
   xmlns:dc="http://purl.org/dc/elements/1.1/"
   xmlns:cc="http://creativecommons.org/ns#"
   xmlns:rdf="http://www.w3.org/1999/02/22-rdf-syntax-ns#"
   xmlns:svg="http://www.w3.org/2000/svg"
   xmlns="http://www.w3.org/2000/svg"
   xmlns:xlink="http://www.w3.org/1999/xlink"
   xmlns:sodipodi="http://sodipodi.sourceforge.net/DTD/sodipodi-0.dtd"
   xmlns:inkscape="http://www.inkscape.org/namespaces/inkscape"
   width="96"
   height="96"
   id="svg2"
   version="1.1"
   inkscape:version="0.48.1 r9760"
   sodipodi:docname="ccsm.svg">
  <defs
     id="defs4">
    <filter
       color-interpolation-filters="sRGB"
       inkscape:collect="always"
       id="filter6279">
      <feGaussianBlur
         inkscape:collect="always"
         stdDeviation="0.8"
         id="feGaussianBlur6281" />
    </filter>
    <linearGradient
       inkscape:collect="always"
       xlink:href="#ButtonColor"
       id="linearGradient6500"
       gradientUnits="userSpaceOnUse"
       gradientTransform="translate(0,-7.8515622e-6)"
       x1="48"
       y1="1052.3622"
       x2="48"
       y2="902.36218" />
    <linearGradient
       x1="58.650177"
       y1="122"
       x2="58.650177"
       y2="5.4252338"
       id="ButtonColor"
       gradientUnits="userSpaceOnUse"
       gradientTransform="matrix(1.0172414,0,0,1.0172414,-1.1034483,-1.1034483)">
      <stop
         id="stop3189-7"
         style="stop-color:#037ac0;stop-opacity:1"
         offset="0" />
      <stop
         id="stop3191-5"
         style="stop-color:#7edafe;stop-opacity:1"
         offset="1" />
    </linearGradient>
    <linearGradient
       inkscape:collect="always"
       xlink:href="#linearGradient3656"
       id="linearGradient6487"
       gradientUnits="userSpaceOnUse"
       gradientTransform="translate(0,-20)"
       x1="22.406412"
       y1="36.600529"
       x2="57.689129"
       y2="103.0291" />
    <linearGradient
       id="linearGradient3656">
      <stop
         id="stop3658"
         style="stop-color:#0b70aa;stop-opacity:1"
         offset="0" />
      <stop
         id="stop3660"
         style="stop-color:#0b70aa;stop-opacity:0"
         offset="1" />
    </linearGradient>
    <linearGradient
       inkscape:collect="always"
       xlink:href="#linearGradient3282"
       id="linearGradient6489"
       gradientUnits="userSpaceOnUse"
       gradientTransform="matrix(0.67065867,0,0,0.67065867,13.101796,7.529888)"
       x1="49.847614"
       y1="13.927948"
       x2="49.847614"
       y2="115.20887" />
    <linearGradient
       id="linearGradient3282">
      <stop
         id="stop3284"
         style="stop-color:#ffffff;stop-opacity:1"
         offset="0" />
      <stop
         id="stop3286-6"
         style="stop-color:#dcdcdc;stop-opacity:1"
         offset="1" />
    </linearGradient>
  </defs>
  <sodipodi:namedview
     id="base"
     pagecolor="#ffffff"
     bordercolor="#666666"
     borderopacity="1.0"
     inkscape:pageopacity="0.0"
     inkscape:pageshadow="2"
     inkscape:zoom="3.959798"
     inkscape:cx="28.389459"
     inkscape:cy="57.490015"
     inkscape:document-units="px"
     inkscape:current-layer="layer1"
     showgrid="false"
     inkscape:window-width="1280"
     inkscape:window-height="725"
     inkscape:window-x="0"
     inkscape:window-y="25"
     inkscape:window-maximized="1" />
  <metadata
     id="metadata7">
    <rdf:RDF>
      <cc:Work
         rdf:about="">
        <dc:format>image/svg+xml</dc:format>
        <dc:type
           rdf:resource="http://purl.org/dc/dcmitype/StillImage" />
        <dc:title></dc:title>
      </cc:Work>
    </rdf:RDF>
  </metadata>
  <g
     inkscape:label="Layer 1"
     inkscape:groupmode="layer"
     id="layer1"
     transform="translate(0,-956.36217)">
    <g
       transform="translate(2.861023e-8,-9.737015e-6)"
       id="g6503">
      <rect
         transform="translate(0,-7.8515622e-6)"
         y="964.36218"
         x="8"
         height="80"
         width="80"
         id="rect9283"
         style="fill:#000000;fill-opacity:1;stroke:none;filter:url(#filter6279)"
         rx="5"
         ry="5" />
      <rect
         ry="5"
         rx="5"
         style="fill:url(#linearGradient6500);fill-opacity:1;stroke:none"
         id="rect9285"
         width="80"
         height="80"
         x="8"
         y="964.36218" />
      <g
         id="g3100"
         transform="matrix(0.77865333,0,0,0.77865333,10.040711,963.86454)">
        <path
           inkscape:connector-curvature="0"
           style="opacity:0.3;fill:url(#linearGradient6487);fill-opacity:1;fill-rule:evenodd;stroke:none;display:inline"
           id="path3715"
           d="M 23.9375,17 A 0.99219516,0.99219516 0 0 0 23,18 l 0,50.75 a 0.99219516,0.99219516 0 0 0 1.75,0.625 L 37,54.6875 51.875,88.40625 A 0.99219516,0.99219516 0 0 0 52.8125,89 L 69.875,88.625 a 0.99219516,0.99219516 0 0 0 0.78125,-1.5625 l -25.8125,-37.4375 20.5,0.15625 A 0.99219516,0.99219516 0 0 0 65.9375,48 L 24.59375,17.21875 A 0.99219516,0.99219516 0 0 0 23.9375,17 z" />
        <path
           style="fill:url(#linearGradient6489);fill-opacity:1;fill-rule:evenodd;stroke:none;display:inline"
           id="path3277"
           inkscape:connector-curvature="0"
           d="M 69.84554,87.630006 42.951853,48.587706 65.329341,48.776328 24,18.00893 24,68.74845 37.266467,52.841265 52.775263,88.00893 69.84554,87.630006 z" />
      </g>
    </g>
  </g>
</svg>

<?xml version="1.0" encoding="UTF-8" standalone="no"?>
<!-- Created with Inkscape (http://www.inkscape.org/) -->
<svg id="svg2" xmlns:rdf="http://www.w3.org/1999/02/22-rdf-syntax-ns#" xmlns="http://www.w3.org/2000/svg" height="96" width="96" version="1.1" xmlns:cc="http://creativecommons.org/ns#" xmlns:xlink="http://www.w3.org/1999/xlink" xmlns:dc="http://purl.org/dc/elements/1.1/">
 <defs id="defs4">
  <filter id="filter6279" color-interpolation-filters="sRGB">
   <feGaussianBlur id="feGaussianBlur6281" stdDeviation="0.8"/>
  </filter>
  <linearGradient id="linearGradient6500" y2="902.36" gradientUnits="userSpaceOnUse" x2="48" gradientTransform="translate(0 -.0000078516)" y1="1052.4" x1="48">
   <stop id="stop3189-7" style="stop-color:#037ac0" offset="0"/>
   <stop id="stop3191-5" style="stop-color:#7edafe" offset="1"/>
  </linearGradient>
  <linearGradient id="linearGradient6487" y2="103.03" gradientUnits="userSpaceOnUse" x2="57.689" gradientTransform="translate(0,-20)" y1="36.601" x1="22.406">
   <stop id="stop3658" style="stop-color:#0b70aa" offset="0"/>
   <stop id="stop3660" style="stop-color:#0b70aa;stop-opacity:0" offset="1"/>
  </linearGradient>
  <linearGradient id="linearGradient6489" y2="115.21" gradientUnits="userSpaceOnUse" x2="49.848" gradientTransform="matrix(.67066 0 0 .67066 13.102 7.5299)" y1="13.928" x1="49.848">
   <stop id="stop3284" style="stop-color:#fff" offset="0"/>
   <stop id="stop3286-6" style="stop-color:#dcdcdc" offset="1"/>
  </linearGradient>
 </defs>
 <metadata id="metadata7">
  <rdf:RDF>
   <cc:Work rdf:about="">
    <dc:format>image/svg+xml</dc:format>
    <dc:type rdf:resource="http://purl.org/dc/dcmitype/StillImage"/>
    <dc:title/>
   </cc:Work>
  </rdf:RDF>
 </metadata>
 <g id="layer1" transform="translate(0 -956.36)">
  <g id="g6503" transform="translate(2.861e-8 -.0000097370)">
   <rect id="rect9283" ry="5" style="filter:url(#filter6279)" rx="5" transform="translate(0 -.0000078516)" height="80" width="80" y="964.36" x="8"/>
   <rect id="rect9285" style="fill:url(#linearGradient6500)" rx="5" ry="5" height="80" width="80" y="964.36" x="8"/>
   <g id="g3100" transform="matrix(.77865 0 0 .77865 10.041 963.86)">
    <path id="path3715" d="m23.938 17a0.9922 0.9922 0 0 0 -0.938 1v50.75a0.9922 0.9922 0 0 0 1.75 0.625l12.25-14.687 14.875 33.718a0.9922 0.9922 0 0 0 0.937 0.594l17.063-0.375a0.9922 0.9922 0 0 0 0.78125 -1.5625l-25.812-37.438 20.5 0.15625a0.9922 0.9922 0 0 0 0.594 -1.78l-41.344-30.781a0.9922 0.9922 0 0 0 -0.656 -0.219z" style="opacity:.3;fill:url(#linearGradient6487);fill-rule:evenodd"/>
    <path id="path3277" d="m69.846 87.63-26.894-39.042 22.377 0.188-41.329-30.767v50.739l13.266-15.907 15.509 35.168 17.071-0.379z" style="fill:url(#linearGradient6489);fill-rule:evenodd"/>
   </g>
  </g>
 </g>
</svg>
